X: 1
T: String Quartet in B\b Major opus 76 no 4 mvt 1
C: Franz Joseph Haydn
%%abc-version 2.0
%%abcx-abcm2ps-target-version 5.9.1 (29 Sep 2008)
%%abc-creator hum2abc beta
%%abcx-conversion-date 2021/02/14 14:38:17
%%abc-copyright Copyright (c) 1994, 2000 Center for Computer Assisted Research in the Humanities
%%abc-edited-by Frances Bennion
%%abcx-initial-encoding-date 1997/04/15
%%gracespace 0 6 6
%%humdrum-veritas 3852565902
%%humdrum-veritas-data 1823387895
%%linebreak <none>
%%barnumbers 0
L: 1/8
M: 4/4
N: Derived from op76n4-01.krn
Q: "Allegro con spirito"
%%staves [1 2 3 4]
V: 1
V: 2
V: 3 clef=alto
V: 4 clef=bass
K: Bb
[V:1]z6 =E2 [I:setbarnb2] |
[V:2]D8- |
[V:3]F,8- |
[V:4]B,,8- |
[V:1]F2 >A2 BA Bd |
[V:2]D8- |
[V:3]F,8- |
[V:4]B,,8- |
[V:1]f2 >A2 Bd fa |
[V:2]D8- |
[V:3]F,8- |
[V:4]B,,8- |
[V:1]b2 >a2 gf ed |
[V:2]D8 |
[V:3]F,8 |
[V:4]B,,8 |
[V:1]c2 z2 d2 z2 |
[V:2]G2 z2 =B2 z2 |
[V:3]C2 z2 [G,2F2] z2 |
[V:4]E,2 z2 D,2 z2 |
[V:1]e2 z6 |
[V:2]c2 z6 |
[V:3][G,2E2] z6 |
[V:4]C,2 z6 |
[V:1]z6 =B,2 |
[V:2]E8- |
[V:3]A,8- |
[V:4]F,,8- |
[V:1]C2 >D2 EF Ac |
[V:2]E8- |
[V:3]A,8- |
[V:4]F,,8- |
[V:1]e2 >=B2 cd e^f |
[V:2]E8- |
[V:3]A,8- |
[V:4]F,,8- |
[V:1]g2 >f2 ed ec |
[V:2]E8 |
[V:3]A,8 |
[V:4]F,,8 |
[V:1]B2 z2 c2 z2 |
[V:2]D2 z2 A2 z2 |
[V:3]B,2 z2 E2 z2 |
[V:4]G,,2 z2 F,,2 z2 |
[V:1]d2 z6 |
[V:2]B2 z6 |
[V:3]D2 z6 |
[V:4]B,,2 z6 |
[V:1]f6 =e2 |
[V:2]B8- |
[V:3]z2 >=E2 FB GB |
[V:4]D6 ^C2 |
[V:1]f6 =e2 |
[V:2]B8- |
[V:3]F2 >=E2 FB GB |
[V:4]D6 ^C2 |
[V:1]f6 ^f2 |
[V:2]B8- |
[V:3]F2 >=E2 FB _AB |
[V:4]D6 D,2 |
[V:1]g2 >^f2 gf gb |
[V:2]B4 _D4 |
[V:3]G4 B,4- |
[V:4]E,8 |
[V:1]f2 >d2 ed eA |
[V:2]D4 C=B, CE |
[V:3]B,4 A,3 C |
[V:4]F,8 |
[V:1]B2 >A2 BA Bd |
[V:2]D8- |
[V:3]B,8 |
[V:4]G,8 |
[V:1]B2 >A2 BA Bd |
[V:2]D8 |
[V:3]_A,8 |
[V:4]F,8 |
[V:1]B2 >A2 BA Bg |
[V:2]_D8 |
[V:3]G,8 |
[V:4]E,4 =E,4 |
[V:1]f2 >d2 ed eA |
[V:2]D4 C=B, CE |
[V:3]B,4 A,3 C |
[V:4]F,8 |
[V:1]B/A/B/d/ F/G/E/F/ D/B/A/B/ F/G/E/F/ |
[V:2]Dz DE Fz DE |
[V:3]B,z B,C Dz B,C |
[V:4]B,,2 z2 B,,2 z2 |
[V:1]D/B/A/B/ F/d/^c/d/ B/f/g/f/ e/d/=c/B/ |
[V:2]Fz Fz Fz Fz |
[V:3]Dz Dz Dz Dz |
[V:4]B,,z B,,z B,,z B,,z |
[V:1]A/e/d/e/ c/d/B/c/ A/E/D/E/ C/E/B,/E/ |
[V:2][AE]z CD Ez CD |
[V:3]Cz A,B, Cz A,B, |
[V:4]B,,2 z2 B,,2 z2 |
[V:1]A,/G/F/G/ E/c/B/c/ A/e/d/e/ A/g/f/e/ |
[V:2]Ez [EA]z [EA]z [AE]z |
[V:3]Cz Cz Cz Cz |
[V:4]B,,z B,,z B,,z B,,z |
[V:1]dz de fz de |
[V:2]B/A/B/d/ F/G/E/F/ D/B/A/B/ F/G/E/F/ |
[V:3]B,z B,C Dz B,C |
[V:4]B,,2 z2 B,,2 z2 |
[V:1]f4 ^f4 |
[V:2]D/d/c/d/ e/d/c/d/ D/c/=B/c/ d/c/B/c/ |
[V:3]D8 |
[V:4]B,,B, B,B, A,,A, A,A, |
[V:1]g2 g>g a2 a3/a/ |
[V:2]B/A/B/d/ B/A/B/g/ ^f/g/a/f/ d/e/d/c/ |
[V:3]D4 ^F2 F/G/F/A/ |
[V:4]G,,G, G,G, D,,D, D,D, |
[V:1][bd]z [dd']z [bd]z [d'd]z |
[V:2]B/b/a/g/ ^f/a/g/f/ g/b/a/g/ f/a/g/f/ |
[V:3]B/d/c/B/ A/c/B/A/ B/d/c/B/ A/c/B/A/ |
[V:4]G,z D,z G,z D,z |
[V:1][bd][db] [d'd][dd'] [bd][db] [d'd][dd'] |
[V:2]g/b/a/g/ ^f/a/g/f/ g/b/a/g/ f/a/g/f/ |
[V:3]B/d/c/B/ A/c/B/A/ B/d/c/B/ A/c/B/A/ |
[V:4]G,,G, D,,D, G,,G, D,,D, |
[V:1]b/d'/c'/b/ a/c'/b/a/ g/b/a/g/ f/a/g/f/ |
[V:2]g/b/a/g/ ^f/a/g/f/ gd2 d |
[V:3]G2 c2 d2 G2 |
[V:4]G,,G, A,,A, B,,B, =B,,=B, |
[V:1]=e2 c'2 =b2 f'2 |
[V:2]c/=e/g/f/ e/g/f/e/ d/e/f/d/ =B/c/d/B/ |
[V:3]G=E/F/ G/E/F/G/ _A4 |
[V:4]C,C CC CC CC |
[V:1]=e'2 c'2 =b2 f'2 |
[V:2]c/=e/g/f/ e/g/f/e/ d/e/f/d/ =B/c/d/B/ |
[V:3]G=E/F/ G/E/F/G/ _A4 |
[V:4]C,C CC CC CC |
[V:1]=e'2 c'2 _a2 =B2 |
[V:2]c/=e/g/f/ e/g/f/e/ f/e/f/e/ fF |
[V:3]G=E/F/ G/E/F/G/ _A4 |
[V:4]C,C CC CC CC |
[V:1]cc/=B/ c/B/c/B/ cC/=B,/ C/B,/C/B,/ |
[V:2]=EC/=B,/ C/B,/C/B,/ CC/B,/ C/B,/C/B,/ |
[V:3]G2 z3 C/=B,/ C/B,/C/B,/ |
[V:4]C2 z3 C,/=B,,/ C,/B,,/C,/B,,/ |
[V:1]C2 zc' =bc' _bg |
[V:2]C2 z6 |
[V:3]C2 zc =Bc _BG |
[V:4]C,2 z6 |
[V:1]a8- |
[V:2]c8- |
[V:3]F8- |
[V:4]z6 =E2 |
[V:1]a8- |
[V:2]c8- |
[V:3]F8- |
[V:4]F2 >=B,2 C^G, A,=E, |
[V:1]a8 |
[V:2]c8- |
[V:3]F8 |
[V:4]F,2 >C,2 B,,A,, G,,F,, |
[V:1]b8- |
[V:2]c8- |
[V:3]=E8- |
[V:4]=E,,2 z4 ^F2 |
[V:1]b8- |
[V:2]c8- |
[V:3]E8- |
[V:4]G2 >^F2 GF GF |
[V:1]b8- |
[V:2]c8- |
[V:3]E8- |
[V:4]G2 >^D2 =E=B, C^F, |
[V:1]b8 |
[V:2]c8 |
[V:3]E8 |
[V:4]G,=E, C,G,, F,,=E,, D,,C,, |
[V:1]_a2 >g2 f=e fg |
[V:2]c2 >B2 _AG AB |
[V:3]F_A,2 B, C_D CB, |
[V:4]F,,F,2 G, _A,B, A,G, |
[V:1]_a2 >g2 f=e fg |
[V:2]c2 >B2 _AG AB |
[V:3]_A,2 >B,2 C_D CB, |
[V:4]F,2 >G,2 _A,B, A,G, |
[V:1]_aa2 _g fe _de |
[V:2]cc2 _A, _A_G FG |
[V:3]_A,A,2 E, F,_G, A,G, |
[V:4]F,F,2 C, _D,E, F,E, |
[V:1]ff2 e _dc Bc |
[V:2]_AA2 c FE _DE |
[V:3]F,F,2 C, _D,E, F,E, |
[V:4]_D,D,2 A,, B,,C, D,C, |
[V:1]_dd2 c BA BA |
[V:2]F4- F_G FG |
[V:3]_D,D,2 E, F,E, F,E, |
[V:4]B,,B,,2 C, _D,C, D,C, |
[V:1]B4 =B4 |
[V:2]F2 >G2 _AG AF |
[V:3]F,8 |
[V:4]_D,4 _D,,4 |
[V:1]cz =ef gz ef |
[V:2]=Ez cd =ez cd |
[V:3]G,2 z2 [C2C,2] z2 |
[V:4]C,,/C,/=B,,/C,/ =E,,/C,/D,,/C,/ C,,/C,/B,,/C,/ E,,/C,/D,,/C,/ |
[V:1]gz ga b/a/g/f/ =e/d/c/B/ |
[V:2]=ez ef g/f/e/d/ c/B/A/G/ |
[V:3][C2C,2] z2 =E4 |
[V:4]C,,/C,/=B,,/C,/ =E,,/C,/D,,/C,/ C,,/C,/C,,/C,/ C,,/C,/C,,/C,/ |
[V:1]Az ab c'z ab |
[V:2]Fz fg az fg |
[V:3]F/F/=E/F/ C/F/B,/F/ A,/F/E/F/ C/F/B,/F/ |
[V:4]F,,2 z2 F,,2 z2 |
[V:1]c'z ab c'f' f'f' |
[V:2]az fg ac cc |
[V:3]A,/F/=E/F/ C/F/B,/F/ A,A AA |
[V:4]F,,2 z2 F,,2 z2 |
[V:1]=e'/f'/e'/f'/ d'/e'/d'/e'/ c'/d'/c'/d'/ b/c'/b/c'/ |
[V:2]B/c/B/c/ A/B/A/B/ G/A/G/A/ F/G/F/G/ |
[V:3]G/A/G/A/ F/G/F/G/ =E/F/E/F/ D/E/D/E/ |
[V:4]z8 |
[V:1]a/b/a/b/ g/a/g/a/ f2 e'2 |
[V:2]=E/F/E/F/ D/E/D/E/ CF FF |
[V:3]C/D/C/D/ B,/C/B,/C/ A,C CC |
[V:4]z4 A,,A,, A,,A,, |
[V:1]d'4 =e'2 f'2 |
[V:2]F4 G2 ^G2 |
[V:3]D2 B,4 =B,2 |
[V:4]B,,B,, B,,B,, B,,B,, =B,,B,, |
[V:1]f'/c'/=e'/c'/ f'/c'/e'/c'/ f'/c'/e'/c'/ f'/c'/e'/c'/ |
[V:2]A^G AG AG AG |
[V:3]C8- |
[V:4]C,2 z6 |
[V:1]f'z c'z az fz |
[V:2]A2 [A4F4] f2 |
[V:3]C8- |
[V:4]C,,/F,,/=E,,/F,,/ C,,/A,,/G,,/A,,/ C,,/C,/=B,,/C,/ C,,/F,/=E,/F,/ |
[V:1]g8 |
[V:2]=e8 |
[V:3]C4 B,4 |
[V:4]C,,2 z2 C,4 |
[V:1]fc' c'c' c'z az |
[V:2]fa aa az fz |
[V:3]A,2 z2 >c2 zA |
[V:4]F,2 z2 >A2 zF |
[V:1]d'z bz gz c'z |
[V:2]bz gz =ez gz |
[V:3]zd zB zG z=E |
[V:4]zB zG z=E zC |
[V:1]a2 z2 >f'2 z=e' |
[V:2]fc cc cz Az |
[V:3]FA AA Az Fz |
[V:4]F2 z6 |
[V:1]zd' z_d' zc' zb |
[V:2]dz Bz Gz =Ez |
[V:3]Bz Gz =Ez Cz |
[V:4]z8 |
[V:1]ac' c'c' c'=e ee |
[V:2]F2 z2 >B2 BB |
[V:3]F2 z2 >G2 GG |
[V:4]z4 zC CC |
[V:1]fc' c'c' c'=e ee |
[V:2]A2 z2 >B2 BB |
[V:3]A2 z2 >G2 GG |
[V:4]F,2 z2 >C2 CC |
[V:1]f/=e/f/a/ c/a/g/f/ e/^f/g/f/ g/b/a/g/ |
[V:2][A/F/][F/A/][F/A/][F/A/][A/F/][A/F/][A/F/][F/A/] [B/=E/][B/E/][B/E/][B/E/][B/E/][E/B/][E/B/][B/E/] |
[V:3]F/C/C/C/ C/C/C/C/ C/C/C/C/ C/C/C/C/ |
[V:4]F,/F,/F,/F,/ F,/F,/F,/F,/ F,/F,/F,/F,/ F,/F,/F,/F,/ |
[V:1]f/=e/f/a/ c/a/g/f/ e/^f/g/f/ g/b/a/g/ |
[V:2][A/F/][A/F/][F/A/][A/F/][A/F/][F/A/][F/A/][F/A/] [B/=E/][B/E/][B/E/][E/B/][E/B/][B/E/][B/E/][B/E/] |
[V:3]C/C/C/C/ C/C/C/C/ C/C/C/C/ C/C/C/C/ |
[V:4]F,,/F,,/F,,/F,,/ F,,/F,,/F,,/F,,/ F,,/F,,/F,,/F,,/ F,,/F,,/F,,/F,,/ |
[V:1]f2 [c2a2] [A2f2] z2 |
[V:2][A2F2] [A2F2] [F2A2] z2 |
[V:3]C2 C2 C2 z2 |
[V:4]F,,2 F,,2 F,,2 z2 |
[V:1]z6 ^C2 |
[V:2]A,8- |
[V:3]F,8- |
[V:4]D,,8- |
[V:1]D2 >=E2 FE F^G |
[V:2]A,8- |
[V:3]F,8- |
[V:4]D,,8- |
[V:1]A2 >^c2 dc df |
[V:2]A,8- |
[V:3]F,8- |
[V:4]D,,8- |
[V:1]^g2 >a2 =gf =ed |
[V:2]A,8 |
[V:3]F,8 |
[V:4]D,,6 F,2 |
[V:1]^c2 z2 d2 z2 |
[V:2]G2 z2 F2 z2 |
[V:3]=E,2 z2 F,2 z2 |
[V:4]=E,2 z2 D,2 z2 |
[V:1]=e2 z6 |
[V:2]=E2 z6 |
[V:3]G,2 z6 |
[V:4]^C,2 z6 |
[V:1]z6 =B,2 |
[V:2]A,8- |
[V:3]E,8- |
[V:4]^F,,8- |
[V:1]C2 >=B,2 CE ^FA |
[V:2]A,8- |
[V:3]E,8- |
[V:4]F,,8- |
[V:1]c2 >=B2 ce ^fa |
[V:2]A,8- |
[V:3]E,8- |
[V:4]F,,8- |
[V:1]c'2 >b2 ag ^fa |
[V:2]A,8- |
[V:3]E,8 |
[V:4]F,,8- |
[V:1]c2 >=B2 ce Ac |
[V:2]A,8 |
[V:3]D,8 |
[V:4]F,,8 |
[V:1]Bz ga bz ga |
[V:2]B,z Bc dz Bc |
[V:3]D,2 z2 G,2 DC |
[V:4]G,,/G,/^F,/G,/ B,,/G,/A,,/G,/ G,,/G,/F,/G,/ B,,/G,/A,,/G,/ |
[V:1]b/c'/d'/c'/ b/a/g/^f/ g/=f/e/d/ c/B/A/G/ |
[V:2]d8 |
[V:3]B,8 |
[V:4]G,,8 |
[V:1]^Fz ab c'z ab |
[V:2][AD]z ^fg az ^FG |
[V:3]D/d/^c/d/ ^F/d/=E/d/ D/d/c/d/ F/d/E/d/ |
[V:4]D,2 z2 ^F,,2 z2 |
[V:1]c'/d'/e'/d'/ c'/b/a/g/ ^f/a/A/B/ c/e/d/c/ |
[V:2]A8 |
[V:3]D8 |
[V:4]^F,8 |
[V:1]Bz b/a/b/c'/ d'z b/a/b/c'/ |
[V:2]B/G/^F/G/ B,/C/B,/A,/ G,/B/A/B/ B,/C/B,/A,/ |
[V:3]Dz D/E/D/C/ B,z D/E/D/C/ |
[V:4]G,2 z2 G,2 z2 |
[V:1]d'd'/e'/ f'f'/g'/ _a'2 [_A,2D2] |
[V:2]G,2 [_A,4D4] [A,2F2] |
[V:3]B,z [F4_A,4] F2 |
[V:4]G,2 B,,4 B,,2 |
[V:1][G,/E/]E/D/E/B,/ E/_A,/E/G,/ E/D/E/B,/ E/A,/E/|
[V:2][EG,]z G_A Bz GA |
[V:3]Gz EF Gz EF |
[V:4]E,,2 z2 E,,2 z2 |
[V:1]G,/_D/C/D/ C/D/C/D/ G,/C/=B,/C/ G,/_B,/A,/B,/ |
[V:2]B6 c_d |
[V:3]G8 |
[V:4]=E,,8 |
[V:1]_A,/F/=E/F/ C/F/B,/F/ A,/F/E/F/ C/F/B,/F/ |
[V:2]cz _AB cz AB |
[V:3]_Az FG Az FG |
[V:4]F,,2 z2 F,,2 z2 |
[V:1]A,/E/D/E/ D/E/D/E/ A,/D/^C/D/ A,/=C/=B,/C/ |
[V:2]c6 de |
[V:3]A8 |
[V:4]^F,,8 |
[V:1]B,/G/^F/G/ D/B/A/B/ G/d/^c/d/ B/g/^f/g/ |
[V:2]d2 d4 d2 |
[V:3]B2 B4 B2 |
[V:4]G,,G, G,G, G,G, G,G, |
[V:1]^fz az c'z fz |
[V:2]c/e/d/e/ c/B/A/G/ ^F/G/A/B/ c/e/d/c/ |
[V:3]A/c/B/c/ A^F D2 D2 |
[V:4]A,,A, A,A, A,A, A,A, |
[V:1]gz bz d'z d'z |
[V:2]Bd/^c/ d/c/d/c/ dg/^f/ g/f/g/f/ |
[V:3]D2 G4 d2 |
[V:4]B,,B, B,B, B,B, B,B, |
[V:1]d'3 e'/d'/ c'2 c'2 |
[V:2]g2 g2 g3 a/g/ |
[V:3]e2 z2 A,/A/^G/A/ G/A/G/A/ |
[V:4]E,/E/D/E/ D/E/D/E/ A,2 z2 |
[V:1]c'3 d'/c'/ b2 b2 |
[V:2]^f2 f2 g2 d2 |
[V:3]D2 z2 G,/G/^F/G/ F/G/F/G/ |
[V:4]D,/D/^C/D/ C/D/C/D/ G,2 z2 |
[V:1]a2 z2 [^f2A2] z2 |
[V:2]e2 z2 c2 z2 |
[V:3]E2 z2 D2 z2 |
[V:4]C2 z2 D2 z2 |
[V:1]gd' d'd' d'z bz |
[V:2]Bb bb bz gz |
[V:3]D2 z2 >d2 zB |
[V:4]G2 z2 >B2 zG |
[V:1]e'z c'z az d'z |
[V:2]c'z az ^fz fz |
[V:3]ze zc zA zA |
[V:4]zc zA z^F zD |
[V:1]b2 z2 >g2 zf |
[V:2]gd dd dz cz |
[V:3]BB BB Bz Az |
[V:4]G2 z6 |
[V:1]ze ee ze zd |
[V:2]B,B BB Bz Az |
[V:3]G,G GG Gz Fz |
[V:4]z8 |
[V:1]zc cc zc z=B |
[V:2]G,G GG Gz Fz |
[V:3]E,E EE Ez Dz |
[V:4]z8 |
[V:1]zc z=B zc zB |
[V:2]Gz Fz Gz Fz |
[V:3]Ez Dz Ez Dz |
[V:4]z4 G2 _A2 |
[V:1]zc z=B zc z_B |
[V:2]Gz _Az Gz Gz |
[V:3]Ez Fz Ez =Ez |
[V:4]G2 D2 E2 =E2 |
[V:1]A2 z2 c2 _d2 |
[V:2]FF FF Fz =Ez |
[V:3]FA, A,A, A,z B,z |
[V:4]F2 z2 >F,2 zF, |
[V:1]c2 z2 C2 _D2 |
[V:2]zF FF Fz =Ez |
[V:3]zA, A,A, A,z B,z |
[V:4]F,,2 z2 >F,2 zF, |
[V:1]C2 z2 A,2 =B,2 |
[V:2]zE EE Ez Dz |
[V:3]zC CC Cz =B,z |
[V:4]F,,2 z2 >F,2 zF, |
[V:1]C2 z2 C2 D2 |
[V:2]zE EE Ez Fz |
[V:3]zC CB, A,z =B,z |
[V:4]F,,2 z2 >F,2 zF, |
[V:1]E2 z6 |
[V:2]zE zE zE zE |
[V:3]zC zC zC zC |
[V:4]F,,z G,,z _A,,z =A,,z |
[V:1]z6 =E2 |
[V:2]D8- |
[V:3]F,8- |
[V:4]B,,8- |
[V:1]F2 >A2 BA Bd |
[V:2]D8- |
[V:3]F,8- |
[V:4]B,,8- |
[V:1]f2 >A2 Bd fa |
[V:2]D8- |
[V:3]F,8- |
[V:4]B,,8- |
[V:1]b2 >a2 gf ed |
[V:2]D8 |
[V:3]F,8 |
[V:4]B,,8 |
[V:1]c2 z2 [F2d2] z2 |
[V:2]G2 z2 [=B2D2] z2 |
[V:3]C2 z2 [F2G,2] z2 |
[V:4]E,2 z2 [G,,2D,2] z2 |
[V:1][e2E2G,2] z6 |
[V:2][c2E2G,2] z6 |
[V:3][E2G,2] z6 |
[V:4][C,,2C,2] z6 |
[V:1]z6 =B,2 |
[V:2]E8- |
[V:3]A,8- |
[V:4]F,,8- |
[V:1]C2 >D2 EF Ac |
[V:2]E8- |
[V:3]A,8- |
[V:4]F,,8- |
[V:1]e2 >=B2 cd e^f |
[V:2]E8- |
[V:3]A,8- |
[V:4]F,,8- |
[V:1]g2 >f2 ed ec |
[V:2]E8 |
[V:3]A,8 |
[V:4]F,,8 |
[V:1][B2D2] z2 [F2c2A,2] z2 |
[V:2]D2 z2 [A2E2] z2 |
[V:3]B,2 z2 [C2E2] z2 |
[V:4]G,,2 z2 F,,2 z2 |
[V:1][d2F2B,2] z6 |
[V:2][B2D2] z6 |
[V:3][D2B,2] z6 |
[V:4]B,,2 z6 |
[V:1]f6 =e2 |
[V:2]B8- |
[V:3]z2 >=E2 FB GB |
[V:4]D6 ^C2 |
[V:1]f6 =e2 |
[V:2]B8- |
[V:3]F2 >=E2 FB GB |
[V:4]D6 ^C2 |
[V:1]f6 ^f2 |
[V:2]B8 |
[V:3]F2 >=E2 FB _AB |
[V:4]D6 C2 |
[V:1]g2 >^f2 g_a d=f |
[V:2]d8 |
[V:3]G8- |
[V:4]=B,8 |
[V:1]e8- |
[V:2]c2 >=B2 ce G_B |
[V:3]G8 |
[V:4]C8 |
[V:1]e6 d2 |
[V:2]_A8- |
[V:3]E2 >D2 E_A FA |
[V:4]C,6 =B,,2 |
[V:1]e6 d2 |
[V:2]A8- |
[V:3]E2 >D2 E_A FA |
[V:4]C,6 =B,,2 |
[V:1]e8 |
[V:2]A3 E/F/ _GF GB |
[V:3]E4 _D4 |
[V:4]C,4 B,,4 |
[V:1]e2 >d2 e_g df |
[V:2]F8- |
[V:3]C6 =B,2 |
[V:4]A,,6 ^G,,2 |
[V:1]e2 >d2 e_g df |
[V:2]F8- |
[V:3]C6 =B,2 |
[V:4]A,,6 ^G,,2 |
[V:1]e2 >d2 e_g ce |
[V:2]F8- |
[V:3]C8 |
[V:4]A,,8 |
[V:1]_d2 >c2 BA Bc |
[V:2]F2 z2 F3 E |
[V:3]B,2 z2 _D3 C |
[V:4]B,,2 z6 |
[V:1]_d2 >c2 BA B_A |
[V:2]_DC DE2 <F2 E |
[V:3]B,A, B,C2 <_D2 C |
[V:4]z8 |
[V:1]_G2 >F2 ED EF |
[V:2]_DC DC B,2 B,2 |
[V:3]B,A, B,_A, _G,B,2 A, |
[V:4]z4 _G,,3 F,, |
[V:1]_G2 >F2 ED E=E |
[V:2]B,2 z6 |
[V:3]_G,F, G,_A, B,4 |
[V:4]E,,D,, E,,F,, _G,,4 |
[V:1]F/c/B/c/ A/B/G/A/ F/e/c/B/ A/g/f/e/ |
[V:2][FA,]z CD Ez [EA]z |
[V:3]A,z A,B, Cz Cz |
[V:4]F,,F, zF, F,,F, F,,F, |
[V:1]d/f/=e/f/ d/f/c/f/ B/f/g/f/ b/a/g/f/ |
[V:2][BD]z DE Fz dz |
[V:3]B,z B,C Dz Bz |
[V:4]F,,F, zF, F,,F, F,,F, |
[V:1]=e/b/a/b/ g/b/f/b/ e/d'/c'/b/ a/b/a/b/ |
[V:2][=eB]z GA Bz [eB]z |
[V:3]Gz =EF Gz Gz |
[V:4]F,,F, zF, F,,F, F,,F, |
[V:1]a2 c'2 _d'2 =e2 |
[V:2][f/A/]f/=e/f/_e/ f/e/f/_d/ f/c/f/B/ d/c/B/|
[V:3]F2 A,2 B,C _DD |
[V:4]F,,8- |
[V:1]f2 c'2 _d'2 =e2 |
[V:2]A/f/=e/f/ _e/f/e/f/ _d/f/c/f/ B/d/c/B/ |
[V:3]C2 A,2 B,C _DD |
[V:4]F,,8- |
[V:1]ff/=e/ f/e/f/e/ fF/=E/ F/E/F/E/ |
[V:2]AF/=E/ F/E/F/E/ FF/E/ F/E/F/E/ |
[V:3]C2 z3 F,/=E,/ F,/E,/F,/E,/ |
[V:4]F,,2 z3 F,,/=E,,/ F,,/E,,/F,,/E,,/ |
[V:1]F2 zf ga bc' |
[V:2]F2 z6 |
[V:3]F,2 z6 |
[V:4]F,,2 z6 |
[V:1]d'8- |
[V:2]f8- |
[V:3]B8- |
[V:4]z6 A,2 |
[V:1]d'8- |
[V:2]f8- |
[V:3]B8- |
[V:4]B,2 >D2 =EF ^CD |
[V:1]d'8 |
[V:2]f8- |
[V:3]B8 |
[V:4]A,B, =E,F, _E,D, C,B,, |
[V:1]e'8- |
[V:2]f8- |
[V:3]c2 z4 =B2 |
[V:4]A,,8- |
[V:1]e'8- |
[V:2]f8- |
[V:3]c2 >e2 =Bc ^GA |
[V:4]A,,8- |
[V:1]e'8 |
[V:2]f8- |
[V:3]=EF =B,C _B,A, G,F, |
[V:4]A,,8 |
[V:1]d'8- |
[V:2]f2 z4 a2 |
[V:3]F8- |
[V:4]_A,,8- |
[V:1]d'8- |
[V:2]b2 >f2 ed cB |
[V:3]F8- |
[V:4]A,,8- |
[V:1]d'8 |
[V:2]AB _cB cB cB |
[V:3]F8 |
[V:4]A,,8 |
[V:1]e'4 =e'4 |
[V:2]BA Bc _dc dB |
[V:3]E4 B,A, B,_D |
[V:4]G,,4 _G,,4 |
[V:1]f'z c'd' e'z c'd' |
[V:2]Az AB cz AB |
[V:3]F/F/=E/F/ C/F/B,/F/ A,/F/E/F/ C/F/B,/F/ |
[V:4]F,,2 z2 F,,2 z2 |
[V:1]e'z c'd' e'/d'/e'/c'/ b/a/c'/e/ |
[V:2]cz AB c4 |
[V:3]A,/F/=E/F/ C/F/B,/F/ A,4 |
[V:4]F,,2 z2 F,,4 |
[V:1]dz de fz de |
[V:2]d/B/A/B/ F/G/E/F/ D/B/A/B/ F/G/E/F/ |
[V:3]B,z D,E, F,z D,E, |
[V:4]B,,2 z2 B,,2 z2 |
[V:1]fz de fb bb |
[V:2]D/B/A/B/ F/G/E/F/ Df ff |
[V:3]F,z D,E, F,d dd |
[V:4]B,,2 z2 B,,2 z2 |
[V:1]a/b/a/b/ g/a/g/a/ f/g/f/g/ e/f/e/f/ |
[V:2]e/f/e/f/ d/e/d/e/ c/d/c/d/ B/c/B/c/ |
[V:3]c/d/c/d/ B/c/B/c/ A/B/A/B/ G/A/G/A/ |
[V:4]z8 |
[V:1]d/e/d/e/ c/d/c/d/ B2 _a2 |
[V:2]A/B/A/B/ G/A/G/A/ FB BB |
[V:3]F/G/F/G/ E/F/E/F/ DF FF |
[V:4]z4 D,D, D,D, |
[V:1]g4 a2 b2 |
[V:2]B4 c2 ^c2 |
[V:3]G2 E4 =E2 |
[V:4]E,E, E,E, E,E, =E,E, |
[V:1]b/f/a/f/ b/f/a/f/ b/f/a/f/ b/f/a/f/ |
[V:2]d^c dc dc d=c |
[V:3]F8 |
[V:4]F,2 z6 |
[V:1]bz fz dz Bz |
[V:2][B8D8] |
[V:3]F,/B,/A,/B,/ F,/D/^C/D/ B,/F/=E/F/ D/B/A/B/ |
[V:4]F,,8- |
[V:1]c8 |
[V:2]A8 |
[V:3]F4 E4 |
[V:4]F,,2 z2 F,4 |
[V:1]Bf ff fz dz |
[V:2]Bd dd dz Bz |
[V:3]D2 z2 >F2 zD |
[V:4]B,,2 z2 >D2 zB, |
[V:1]gz ez cz fz |
[V:2]ez cz Az cz |
[V:3]zG zE zC zA, |
[V:4]zE zC zA, zF, |
[V:1]d2 z2 >b2 za |
[V:2]Bf ff fz dz |
[V:3]B,d dd dz Bz |
[V:4]B,2 z6 |
[V:1]zg z_g zf ze |
[V:2]gz ez cz Az |
[V:3]ez cz Az Fz |
[V:4]z8 |
[V:1]d2 z2 >[b2B2] [bB][bB] |
[V:2]B2 z2 >f2 ff |
[V:3]B2 z2 >d2 dd |
[V:4]z_A,, A,,A,, A,,2 z2 |
[V:1][b2B2] z2 >b2 bb |
[V:2]g2 z2 >=E2 EE |
[V:3]e2 z2 >_d2 dB |
[V:4]zG,, G,,G,, _G,,4 |
[V:1]af ff gz fz |
[V:2]F2 z2 >D2 DD |
[V:3]c2 z2 >=B,2 B,B, |
[V:4]F,,8- |
[V:1]ze e=e fz _ez |
[V:2]Ez Dz CE Cc |
[V:3]Cz B,z2 A, A,A, |
[V:4]F,,4 z^F,, F,,F,, |
[V:1]dz cz Bz Az |
[V:2]Bz Gz Fz Ez |
[V:3]B,z Ez Dz Cz |
[V:4]G,,G,, zE,, zF,, zF, |
[V:1]bz az bz az |
[V:2]Bz Az Bz Az |
[V:3]zF z_G zF zG |
[V:4]zD zE zD zE |
[V:1]bb aa bb aa |
[V:2]BB cc BB cc |
[V:3]FD _GG FD GG |
[V:4]DB,, E,B,, D,B,, E,B,, |
[V:1]B/b/B/b/ c/c'/c/c'/ d/d'/d/d'/ e/e'/e/e'/ |
[V:2]dD eE fF gG |
[V:3]F4 B2 B2 |
[V:4]D,B,, A,,A, _A,,_A, G,,G, |
[V:1]f'8 |
[V:2]_a8 |
[V:3]B8 |
[V:4]D,,8 |
[V:1]G8- |
[V:2]B,8- |
[V:3]z6 C,2 |
[V:4]E,,8- |
[V:1]G8- |
[V:2]B,8- |
[V:3]_D,2 >C,2 D,C, D,F, |
[V:4]E,,8 |
[V:1]G2 >^F2 GF GB |
[V:2]B,8- |
[V:3]_D,8 |
[V:4]=E,,8 |
[V:1]F8 |
[V:2]B,2 >A,2 B,A, B,D |
[V:3]D,2 >^C,2 D,C, D,F, |
[V:4]F,,8- |
[V:1]C2 >=B,2 CB, CE |
[V:2]A,8- |
[V:3]E,8- |
[V:4]F,,8- |
[V:1]C2 >D2 E^F GF |
[V:2]A,8- |
[V:3]E,8- |
[V:4]F,,8- |
[V:1]G2 E2 C2 A,2 |
[V:2]A,6 C2 |
[V:3]E,8 |
[V:4]F,,8 |
[V:1]B,F FF FA AA |
[V:2]B,2 z2 >E2 EE |
[V:3]D,2 z2 >C2 CC |
[V:4]B,,2 z2 >F,2 F,F, |
[V:1]Bf ff fA AA |
[V:2]D2 z2 >E2 EE |
[V:3]D2 z2 >C2 CC |
[V:4]B,,2 z2 >F,2 F,F, |
[V:1]B/A/B/d/ F/d/c/B/ A/=B/c/B/ c/e/d/c/ |
[V:2][B,/D/][D/B,/][D/B,/][B,/D/][B,/D/][B,/D/][B,/D/][B,/D/] [E/A,/][E/A,/][A,/E/][E/A,/][E/A,/][E/A,/][E/A,/][A,/E/] |
[V:3]D/F,/F,/F,/ F,/F,/F,/F,/ F,/F,/F,/F,/ F,/F,/F,/F,/ |
[V:4]B,,/B,,/B,,/B,,/ B,,/B,,/B,,/B,,/ B,,/B,,/B,,/B,,/ B,,/B,,/B,,/B,,/ |
[V:1]B/A/B/d/ F/d/c/B/ A/=B/c/B/ c/e/d/c/ |
[V:2][D/B,/][B,/D/][D/B,/][D/B,/][D/B,/][B,/D/][B,/D/][B,/D/] [E/A,/][E/A,/][E/A,/][A,/E/][A,/E/][A,/E/][A,/E/][A,/E/] |
[V:3]F,/F,/F,/F,/ F,/F,/F,/F,/ F,/F,/F,/F,/ F,/F,/F,/F,/ |
[V:4]B,,/B,,/B,,/B,,/ B,,/B,,/B,,/B,,/ B,,/B,,/B,,/B,,/ B,,/B,,/B,,/B,,/ |
[V:1]Bz bz d'z bz |
[V:2][DB,]z dz fz dz |
[V:3]F,z F,z D,z F,z |
[V:4]B,,z B,,z B,,z B,,z |
[V:1][d2f2] z2 [d2F2] z2 |
[V:2][B2D2] z2 [B2D2] z2 |
[V:3]B,2 z2 [B,2D,2] z2 |
[V:4]B,,2 z2 B,,2 z2 |
[V:1][B2D2B,2] z6 |]
[V:2][B2D2] z6 |]
[V:3][B,2D,2] z6 |]
[V:4]B,,2 z6 |]

